img/icon/next_collection.svg

<svg width="13" height="13" viewBox="0 0 13 13" fill="none" xmlns="http://www.w3.org/2000/svg">
<path d="M5.57031 1.08203C5.29688 1.35547 5.32422 1.76562 5.57031 2.03906L8.87891 5.15625H1.03125C0.648438 5.15625 0.375 5.45703 0.375 5.8125V6.6875C0.375 7.07031 0.648438 7.34375 1.03125 7.34375H8.87891L5.57031 10.4883C5.32422 10.7617 5.32422 11.1719 5.57031 11.4453L6.17188 12.0469C6.44531 12.293 6.85547 12.293 7.10156 12.0469L12.4336 6.71484C12.6797 6.46875 12.6797 6.05859 12.4336 5.78516L7.10156 0.480469C6.85547 0.234375 6.44531 0.234375 6.17188 0.480469L5.57031 1.08203Z" fill="#1565D8"/>
</svg>

<svg xmlns="http://www.w3.org/2000/svg" fill="none" viewBox="0 0 13 13"><path fill="#1565D8" d="M5.57 1.082c-.273.273-.246.684 0 .957L8.88 5.156H1.03c-.383 0-.656.301-.656.657v.875c0 .382.273.656.656.656H8.88L5.57 10.488a.713.713 0 0 0 0 .957l.602.602c.273.246.683.246.93 0l5.332-5.332c.246-.246.246-.656 0-.93L7.102.48c-.247-.246-.657-.246-.93 0l-.602.602z"/></svg>
